svgs/duotone/vacuum.svg

<svg xmlns="http://www.w3.org/2000/svg" viewBox="0 0 640 512"><!-- Font Awesome Pro 6.0.0-alpha2 by @fontawesome - https://fontawesome.com License - https://fontawesome.com/license (Commercial License) --><defs><style>.fa-secondary{opacity:.4}</style></defs><path d="M576 320V448C576 483.346 547.346 512 512 512H446.221C491.127 470.488 493.881 400.432 452.369 355.525C426.842 327.91 389.045 315.137 352 321.609V160C352 142.326 366.326 128 384 128C490 128 576 214 576 320Z" class="fa-secondary"/><path d="M368 352C323.816 352 288 387.816 288 432C288 476.182 323.816 512 368 512S448 476.182 448 432C448 387.816 412.184 352 368 352ZM368 448C359.164 448 352 440.836 352 432C352 423.162 359.164 416 368 416S384 423.162 384 432C384 440.836 376.836 448 368 448ZM640 128C639.924 57.34 582.66 0.076 512 0H301.609C241.641 0 189 42.559 176.439 101.189L102.119 448H48C21.49 448 0 469.49 0 496C0 504.836 7.164 512 16 512H176C184.836 512 192 504.836 192 496V464C192 455.162 184.836 448 176 448H167.59L239 114.59C245.439 85.139 271.465 64.109 301.609 64H512C547.346 64.141 575.885 92.91 575.742 128.256C575.621 158.217 554.732 184.084 525.471 190.51C540.607 206.941 552.758 225.895 561.369 246.51C561.221 246.139 561.109 245.74 560.961 245.369C607.16 226.109 640 181.129 640 128Z" class="fa-primary"/></svg>

<svg xmlns="http://www.w3.org/2000/svg" viewBox="0 0 640 512"><!--! Font Awesome Pro 6.0.0-alpha3 by @fontawesome - https://fontawesome.com License - https://fontawesome.com/license (Commercial License) --><defs><style>.fa-secondary{opacity:.4}</style></defs><path class="fa-primary" d="M368 352C323.8 352 288 387.8 288 432c0 44.18 35.82 80 80 80s80-35.82 80-80C448 387.8 412.2 352 368 352zM368 448c-8.836 0-16-7.164-16-16c0-8.838 7.164-16 16-16s16 7.162 16 16C384 440.8 376.8 448 368 448zM640 128c-.0762-70.66-57.34-127.9-128-128H301.6C241.6 0 189 42.59 176.5 101.2L102.1 448H48C21.49 448 0 469.5 0 496C0 504.8 7.164 512 16 512h160C184.8 512 192 504.8 192 496v-32C192 455.2 184.8 448 176 448H167.6L239 114.6C245.4 85.16 271.5 64.11 301.6 64H512c35.35 .1406 63.88 28.91 63.74 64.26c-.1211 29.96-20.1 55.82-50.26 62.25c15.14 16.43 27.27 35.39 35.88 56c-.1484-.3711-.2402-.7666-.3887-1.138C607.2 226.1 640 181.1 640 128z"/><path class="fa-secondary" d="M576 320v128c0 35.35-28.65 64-64 64h-65.78c44.91-41.51 47.66-111.6 6.148-156.5C426.8 327.9 389 315.1 352 321.6V160c0-17.67 14.33-32 32-32C489.1 128 576 214 576 320z"/></svg>
